algorithms/virtual-memory-management/lru/empty-lru-cache.svg

<svg width="698" height="256" viewBox="0 0 698 256" fill="none" xmlns="http://www.w3.org/2000/svg">
<rect x="17" y="89" width="659" height="97" rx="27" stroke="#DBDBDB" stroke-width="2"/>
<path d="M242.525 49V19.9091H248.675V43.929H261.147V49H242.525ZM265.22 49V19.9091H276.697C278.894 19.9091 280.769 20.3021 282.322 21.0881C283.885 21.8646 285.073 22.9678 285.887 24.3977C286.711 25.8182 287.123 27.4896 287.123 29.4119C287.123 31.3437 286.707 33.0057 285.873 34.3977C285.04 35.7803 283.833 36.8409 282.251 37.5795C280.679 38.3182 278.776 38.6875 276.541 38.6875H268.856V33.7443H275.547C276.721 33.7443 277.696 33.5833 278.473 33.2614C279.249 32.9394 279.827 32.4564 280.206 31.8125C280.594 31.1686 280.788 30.3684 280.788 29.4119C280.788 28.446 280.594 27.6316 280.206 26.9688C279.827 26.3059 279.244 25.804 278.458 25.4631C277.682 25.1127 276.702 24.9375 275.518 24.9375H271.37V49H265.22ZM280.93 35.7614L288.16 49H281.37L274.297 35.7614H280.93ZM309.439 19.9091H315.589V38.8011C315.589 40.9223 315.083 42.7784 314.069 44.3693C313.065 45.9602 311.659 47.2008 309.85 48.0909C308.042 48.9716 305.935 49.4119 303.529 49.4119C301.115 49.4119 299.003 48.9716 297.194 48.0909C295.386 47.2008 293.979 45.9602 292.975 44.3693C291.972 42.7784 291.47 40.9223 291.47 38.8011V19.9091H297.62V38.2756C297.62 39.3835 297.862 40.3684 298.345 41.2301C298.837 42.0919 299.529 42.7689 300.419 43.2614C301.309 43.7538 302.346 44 303.529 44C304.723 44 305.76 43.7538 306.64 43.2614C307.53 42.7689 308.217 42.0919 308.7 41.2301C309.192 40.3684 309.439 39.3835 309.439 38.2756V19.9091ZM355.575 30.0938H349.353C349.24 29.2888 349.008 28.5739 348.657 27.9489C348.307 27.3144 347.857 26.7746 347.308 26.3295C346.759 25.8845 346.124 25.5436 345.404 25.3068C344.694 25.0701 343.922 24.9517 343.089 24.9517C341.583 24.9517 340.272 25.3258 339.154 26.0739C338.037 26.8125 337.171 27.892 336.555 29.3125C335.94 30.7235 335.632 32.4375 335.632 34.4545C335.632 36.5284 335.94 38.2708 336.555 39.6818C337.18 41.0928 338.051 42.1581 339.169 42.8778C340.286 43.5975 341.579 43.9574 343.047 43.9574C343.87 43.9574 344.633 43.8485 345.333 43.6307C346.044 43.4129 346.673 43.0956 347.223 42.679C347.772 42.2528 348.226 41.7367 348.586 41.1307C348.956 40.5246 349.211 39.8333 349.353 39.0568L355.575 39.0852C355.414 40.4205 355.011 41.7083 354.368 42.9489C353.733 44.1799 352.876 45.2831 351.797 46.2585C350.726 47.2244 349.448 47.9915 347.961 48.5597C346.484 49.1184 344.813 49.3977 342.947 49.3977C340.352 49.3977 338.032 48.8106 335.987 47.6364C333.951 46.4621 332.341 44.7623 331.157 42.5369C329.983 40.3116 329.396 37.6174 329.396 34.4545C329.396 31.2822 329.993 28.5833 331.186 26.358C332.379 24.1326 333.998 22.4375 336.044 21.2727C338.089 20.0985 340.39 19.5114 342.947 19.5114C344.633 19.5114 346.195 19.7481 347.635 20.2216C349.083 20.6951 350.367 21.3864 351.484 22.2955C352.601 23.1951 353.511 24.2983 354.211 25.6051C354.922 26.9119 355.376 28.4081 355.575 30.0938ZM366.093 49.4119C364.701 49.4119 363.461 49.1705 362.372 48.6875C361.283 48.1951 360.421 47.4706 359.787 46.5142C359.162 45.5483 358.849 44.3456 358.849 42.9062C358.849 41.6941 359.072 40.6761 359.517 39.8523C359.962 39.0284 360.568 38.3655 361.335 37.8636C362.102 37.3617 362.973 36.983 363.949 36.7273C364.933 36.4716 365.966 36.2917 367.045 36.1875C368.314 36.0549 369.337 35.9318 370.113 35.8182C370.89 35.6951 371.453 35.5152 371.804 35.2784C372.154 35.0417 372.329 34.6913 372.329 34.2273V34.142C372.329 33.2424 372.045 32.5464 371.477 32.054C370.918 31.5616 370.123 31.3153 369.091 31.3153C368.002 31.3153 367.135 31.5568 366.491 32.0398C365.847 32.5133 365.421 33.1098 365.213 33.8295L359.616 33.375C359.9 32.0492 360.459 30.9034 361.292 29.9375C362.126 28.9621 363.2 28.214 364.517 27.6932C365.842 27.1629 367.377 26.8977 369.119 26.8977C370.331 26.8977 371.491 27.0398 372.599 27.3239C373.717 27.608 374.706 28.0483 375.568 28.6449C376.439 29.2415 377.126 30.0085 377.627 30.946C378.129 31.8741 378.38 32.9867 378.38 34.2841V49H372.642V45.9744H372.471C372.121 46.6562 371.652 47.2576 371.065 47.7784C370.478 48.2898 369.772 48.6922 368.949 48.9858C368.125 49.2699 367.173 49.4119 366.093 49.4119ZM367.826 45.2358C368.717 45.2358 369.502 45.0606 370.184 44.7102C370.866 44.3504 371.401 43.8674 371.789 43.2614C372.178 42.6553 372.372 41.9687 372.372 41.2017V38.8864C372.182 39.0095 371.922 39.1231 371.591 39.2273C371.269 39.322 370.904 39.4119 370.497 39.4972C370.09 39.5729 369.682 39.6439 369.275 39.7102C368.868 39.767 368.499 39.8191 368.167 39.8665C367.457 39.9706 366.837 40.1364 366.306 40.3636C365.776 40.5909 365.364 40.8987 365.071 41.2869C364.777 41.6657 364.63 42.1392 364.63 42.7074C364.63 43.5312 364.929 44.161 365.525 44.5966C366.131 45.0227 366.898 45.2358 367.826 45.2358ZM392.933 49.4261C390.698 49.4261 388.776 48.9527 387.166 48.0057C385.565 47.0492 384.334 45.7235 383.473 44.0284C382.62 42.3333 382.194 40.3826 382.194 38.1761C382.194 35.9413 382.625 33.9811 383.487 32.2955C384.358 30.6004 385.594 29.2794 387.194 28.3324C388.795 27.3759 390.698 26.8977 392.904 26.8977C394.808 26.8977 396.475 27.2434 397.904 27.9347C399.334 28.6259 400.466 29.5966 401.299 30.8466C402.133 32.0966 402.592 33.5644 402.677 35.25H396.967C396.806 34.161 396.38 33.285 395.689 32.6222C395.007 31.9498 394.112 31.6136 393.004 31.6136C392.066 31.6136 391.247 31.8693 390.547 32.3807C389.855 32.8826 389.315 33.6165 388.927 34.5824C388.539 35.5483 388.345 36.7178 388.345 38.0909C388.345 39.483 388.534 40.6667 388.913 41.642C389.301 42.6174 389.846 43.3608 390.547 43.8722C391.247 44.3835 392.066 44.6392 393.004 44.6392C393.695 44.6392 394.315 44.4972 394.865 44.2131C395.423 43.929 395.883 43.517 396.243 42.9773C396.612 42.428 396.853 41.7699 396.967 41.0028H402.677C402.583 42.6695 402.128 44.1373 401.314 45.4062C400.509 46.6657 399.396 47.6506 397.975 48.3608C396.555 49.071 394.874 49.4261 392.933 49.4261ZM412.603 36.3864V49H406.551V19.9091H412.432V31.0312H412.688C413.18 29.7434 413.976 28.7348 415.074 28.0057C416.173 27.267 417.551 26.8977 419.208 26.8977C420.723 26.8977 422.044 27.2292 423.171 27.892C424.307 28.5455 425.188 29.4877 425.813 30.7188C426.447 31.9403 426.76 33.4034 426.75 35.108V49H420.699V36.1875C420.709 34.8428 420.368 33.7964 419.676 33.0483C418.995 32.3002 418.038 31.9261 416.807 31.9261C415.983 31.9261 415.254 32.1013 414.62 32.4517C413.995 32.8021 413.502 33.3134 413.142 33.9858C412.792 34.6487 412.612 35.4489 412.603 36.3864ZM441.456 49.4261C439.211 49.4261 437.279 48.9716 435.66 48.0625C434.05 47.1439 432.81 45.8466 431.939 44.1705C431.067 42.4848 430.632 40.4915 430.632 38.1903C430.632 35.946 431.067 33.9763 431.939 32.2812C432.81 30.5862 434.036 29.2652 435.618 28.3182C437.208 27.3712 439.074 26.8977 441.214 26.8977C442.654 26.8977 443.993 27.1297 445.234 27.5938C446.484 28.0483 447.573 28.7348 448.501 29.6534C449.439 30.572 450.168 31.7273 450.689 33.1193C451.209 34.5019 451.47 36.1212 451.47 37.9773V39.6392H433.047V35.8892H445.774C445.774 35.018 445.584 34.2462 445.206 33.5739C444.827 32.9015 444.301 32.3759 443.629 31.9972C442.966 31.6089 442.194 31.4148 441.314 31.4148C440.395 31.4148 439.581 31.6278 438.87 32.054C438.17 32.4706 437.62 33.0341 437.223 33.7443C436.825 34.4451 436.621 35.2263 436.612 36.0881V39.6534C436.612 40.733 436.811 41.6657 437.208 42.4517C437.616 43.2377 438.189 43.8438 438.927 44.2699C439.666 44.696 440.542 44.9091 441.555 44.9091C442.227 44.9091 442.843 44.8144 443.402 44.625C443.96 44.4356 444.439 44.1515 444.836 43.7727C445.234 43.3939 445.537 42.9299 445.745 42.3807L451.342 42.75C451.058 44.0947 450.475 45.2689 449.595 46.2727C448.724 47.267 447.597 48.0436 446.214 48.6023C444.841 49.1515 443.255 49.4261 441.456 49.4261Z" fill="white"/>
<path d="M616.224 234V210.727H619.043V231.5H629.861V234H616.224ZM634.224 234V210.727H642.088C643.906 210.727 645.399 211.038 646.565 211.659C647.732 212.273 648.596 213.117 649.156 214.193C649.717 215.269 649.997 216.492 649.997 217.864C649.997 219.235 649.717 220.451 649.156 221.511C648.596 222.572 647.736 223.405 646.577 224.011C645.418 224.61 643.937 224.909 642.134 224.909H635.77V222.364H642.043C643.285 222.364 644.285 222.182 645.043 221.818C645.808 221.455 646.361 220.939 646.702 220.273C647.05 219.598 647.224 218.795 647.224 217.864C647.224 216.932 647.05 216.117 646.702 215.42C646.353 214.723 645.796 214.186 645.031 213.807C644.266 213.42 643.255 213.227 641.997 213.227H637.043V234H634.224ZM645.179 223.545L650.906 234H647.634L641.997 223.545H645.179ZM669.966 210.727H672.784V226.136C672.784 227.727 672.409 229.148 671.659 230.398C670.917 231.64 669.867 232.621 668.511 233.341C667.155 234.053 665.564 234.409 663.739 234.409C661.913 234.409 660.322 234.053 658.966 233.341C657.61 232.621 656.557 231.64 655.807 230.398C655.064 229.148 654.693 227.727 654.693 226.136V210.727H657.511V225.909C657.511 227.045 657.761 228.057 658.261 228.943C658.761 229.822 659.473 230.515 660.398 231.023C661.33 231.523 662.443 231.773 663.739 231.773C665.034 231.773 666.148 231.523 667.08 231.023C668.011 230.515 668.723 229.822 669.216 228.943C669.716 228.057 669.966 227.045 669.966 225.909V210.727Z" fill="#717171"/>
<path d="M19.9901 210.727H23.3537L31.2628 230.045H31.5355L39.4446 210.727H42.8082V234H40.1719V216.318H39.9446L32.6719 234H30.1264L22.8537 216.318H22.6264V234H19.9901V210.727ZM48.4588 234V210.727H56.3224C58.1406 210.727 59.633 211.038 60.7997 211.659C61.9664 212.273 62.83 213.117 63.3906 214.193C63.9512 215.269 64.2315 216.492 64.2315 217.864C64.2315 219.235 63.9512 220.451 63.3906 221.511C62.83 222.572 61.9702 223.405 60.8111 224.011C59.652 224.61 58.1709 224.909 56.3679 224.909H50.0043V222.364H56.277C57.5194 222.364 58.5194 222.182 59.277 221.818C60.0421 221.455 60.5952 220.939 60.9361 220.273C61.2846 219.598 61.4588 218.795 61.4588 217.864C61.4588 216.932 61.2846 216.117 60.9361 215.42C60.5876 214.723 60.0308 214.186 59.2656 213.807C58.5005 213.42 57.4891 213.227 56.2315 213.227H51.277V234H48.4588ZM59.4134 223.545L65.1406 234H61.8679L56.2315 223.545H59.4134ZM84.2003 210.727H87.0185V226.136C87.0185 227.727 86.6435 229.148 85.8935 230.398C85.151 231.64 84.1018 232.621 82.7457 233.341C81.3897 234.053 79.7988 234.409 77.973 234.409C76.1473 234.409 74.5563 234.053 73.2003 233.341C71.8442 232.621 70.7912 231.64 70.0412 230.398C69.2988 229.148 68.9276 227.727 68.9276 226.136V210.727H71.7457V225.909C71.7457 227.045 71.9957 228.057 72.4957 228.943C72.9957 229.822 73.7079 230.515 74.6321 231.023C75.5639 231.523 76.6776 231.773 77.973 231.773C79.2685 231.773 80.3821 231.523 81.3139 231.023C82.2457 230.515 82.9579 229.822 83.4503 228.943C83.9503 228.057 84.2003 227.045 84.2003 225.909V210.727Z" fill="#717171"/>
<path d="M76.8764 138.773V141.273H66.6946V138.773H76.8764ZM91.5952 138.773V141.273H81.4134V138.773H91.5952ZM106.314 138.773V141.273H96.1321V138.773H106.314Z" fill="white"/>
<path d="M207.876 138.773V141.273H197.695V138.773H207.876ZM222.595 138.773V141.273H212.413V138.773H222.595ZM237.314 138.773V141.273H227.132V138.773H237.314Z" fill="white"/>
<path d="M338.876 138.773V141.273H328.695V138.773H338.876ZM353.595 138.773V141.273H343.413V138.773H353.595ZM368.314 138.773V141.273H358.132V138.773H368.314Z" fill="white"/>
<path d="M469.876 138.773V141.273H459.695V138.773H469.876ZM484.595 138.773V141.273H474.413V138.773H484.595ZM499.314 138.773V141.273H489.132V138.773H499.314Z" fill="white"/>
<path d="M600.876 138.773V141.273H590.695V138.773H600.876ZM615.595 138.773V141.273H605.413V138.773H615.595ZM630.314 138.773V141.273H620.132V138.773H630.314Z" fill="white"/>
<line x1="151" y1="89" x2="151" y2="186" stroke="#DBDBDB" stroke-width="2"/>
<line x1="282" y1="89" x2="282" y2="186" stroke="#DBDBDB" stroke-width="2"/>
<line x1="413" y1="89" x2="413" y2="186" stroke="#DBDBDB" stroke-width="2"/>
<line x1="544" y1="89" x2="544" y2="186" stroke="#DBDBDB" stroke-width="2"/>
</svg>

<svg xmlns="http://www.w3.org/2000/svg" width="698" height="256" fill="none" viewBox="0 0 698 256"><rect width="659" height="97" x="17" y="89" stroke="#dbdbdb" stroke-width="2" rx="27"/><path fill="#fff" d="M242.525 49V19.91h6.15v24.019h12.472V49zm22.695 0V19.91h11.477q3.296 0 5.625 1.178 2.344 1.165 3.565 3.31 1.236 2.13 1.236 5.014 0 2.898-1.25 4.986-1.25 2.073-3.622 3.182-2.358 1.108-5.71 1.108h-7.685v-4.944h6.691q1.76 0 2.926-.483 1.164-.483 1.733-1.449.582-.965.582-2.4 0-1.449-.582-2.443-.569-.994-1.748-1.506-1.164-.526-2.94-.526h-4.148V49zm15.71-13.239L288.16 49h-6.79l-7.073-13.239zm28.509-15.852h6.15v18.892q0 3.182-1.52 5.568-1.506 2.387-4.219 3.722-2.712 1.32-6.321 1.32-3.621 0-6.335-1.32-2.712-1.334-4.219-3.722-1.505-2.386-1.505-5.568V19.91h6.15v18.367q0 1.66.725 2.954a5.3 5.3 0 0 0 2.074 2.031q1.335.74 3.11.739 1.791 0 3.111-.739a5.2 5.2 0 0 0 2.06-2.03q.738-1.294.739-2.955zm46.136 10.185h-6.222q-.17-1.208-.696-2.145a5.5 5.5 0 0 0-1.349-1.62 5.9 5.9 0 0 0-1.904-1.022 7.3 7.3 0 0 0-2.315-.355q-2.258 0-3.935 1.122-1.675 1.108-2.599 3.238-.923 2.117-.923 5.143 0 3.11.923 5.227.937 2.115 2.614 3.196t3.878 1.08q1.235 0 2.286-.327a6 6 0 0 0 1.89-.952 5.5 5.5 0 0 0 1.363-1.548q.554-.91.767-2.074l6.222.028a11.3 11.3 0 0 1-1.207 3.864 11.6 11.6 0 0 1-2.571 3.31q-1.606 1.448-3.836 2.3-2.215.84-5.014.839-3.893 0-6.96-1.762-3.054-1.761-4.83-5.1-1.761-3.337-1.761-8.081 0-4.76 1.79-8.097t4.858-5.085q3.067-1.761 6.903-1.762 2.529 0 4.688.71 2.173.71 3.849 2.075 1.676 1.349 2.727 3.31 1.066 1.959 1.364 4.488m10.518 19.318q-2.088 0-3.721-.724-1.634-.739-2.585-2.174-.938-1.449-.938-3.608 0-1.818.668-3.054a5.4 5.4 0 0 1 1.818-1.988 8.8 8.8 0 0 1 2.614-1.137 20 20 0 0 1 3.096-.54 78 78 0 0 0 3.068-.369q1.165-.184 1.691-.54.525-.355.525-1.05v-.086q0-1.35-.852-2.088-.838-.738-2.386-.739-1.634 0-2.6.725-.966.71-1.278 1.79l-5.597-.455q.426-1.99 1.676-3.437 1.25-1.464 3.225-2.245 1.988-.795 4.602-.795 1.818 0 3.48.426 1.676.426 2.969 1.32a6.4 6.4 0 0 1 2.059 2.302q.753 1.392.753 3.338V49h-5.738v-3.026h-.171a6.2 6.2 0 0 1-1.406 1.804q-.881.767-2.116 1.208-1.236.426-2.856.426m1.733-4.176q1.336 0 2.358-.526a4.2 4.2 0 0 0 1.605-1.449q.583-.909.583-2.06v-2.315a3.3 3.3 0 0 1-.781.341q-.483.142-1.094.27-.611.114-1.222.213l-1.108.157q-1.065.156-1.861.497-.795.34-1.235.923-.441.568-.441 1.42 0 1.236.895 1.89.909.639 2.301.639m25.107 4.19q-3.352 0-5.767-1.42-2.401-1.435-3.693-3.978-1.28-2.542-1.279-5.852 0-3.352 1.293-5.88 1.307-2.544 3.707-3.964 2.401-1.434 5.71-1.434 2.856 0 5 1.037t3.395 2.912 1.378 4.403h-5.71q-.242-1.633-1.278-2.628-1.023-1.008-2.685-1.008-1.407 0-2.457.767-1.038.753-1.62 2.201-.582 1.45-.582 3.509 0 2.088.568 3.551.582 1.463 1.634 2.23 1.05.767 2.457.767 1.036 0 1.861-.426a3.6 3.6 0 0 0 1.378-1.236q.553-.823.724-1.974h5.71q-.142 2.5-1.363 4.403-1.208 1.89-3.339 2.955-2.13 1.065-5.042 1.065m19.67-13.04V49h-6.052V19.91h5.881V31.03h.256q.738-1.932 2.386-3.025 1.648-1.108 4.134-1.108 2.272 0 3.963.994 1.704.98 2.642 2.827.952 1.831.937 4.389V49h-6.051V36.188q.015-2.018-1.023-3.14-1.022-1.122-2.869-1.122-1.236 0-2.187.526-.938.525-1.478 1.534-.525.995-.539 2.4m28.853 13.04q-3.368 0-5.796-1.364-2.415-1.377-3.721-3.892-1.308-2.527-1.307-5.98 0-3.366 1.307-5.909t3.679-3.963q2.385-1.42 5.596-1.42 2.16 0 4.02.696a8.9 8.9 0 0 1 3.267 2.06q1.407 1.377 2.188 3.465.78 2.074.781 4.858v1.662h-18.423v-3.75h12.727q0-1.307-.568-2.315a4.07 4.07 0 0 0-1.577-1.577q-.995-.582-2.315-.582-1.378 0-2.444.639-1.05.625-1.647 1.69-.597 1.051-.611 2.344v3.565q0 1.62.596 2.799a4.38 4.38 0 0 0 1.719 1.818q1.109.64 2.628.64 1.008 0 1.847-.285a3.8 3.8 0 0 0 1.434-.852q.597-.57.909-1.392l5.597.369a7.65 7.65 0 0 1-1.747 3.523q-1.307 1.49-3.381 2.33-2.06.823-4.758.823"/><path fill="#717171" d="M616.224 234v-23.273h2.819V231.5h10.818v2.5zm18 0v-23.273h7.864q2.727 0 4.477.932 1.75.92 2.591 2.534t.841 3.671-.841 3.647q-.84 1.591-2.579 2.5-1.738.898-4.443.898h-6.364v-2.545h6.273q1.863 0 3-.546 1.147-.545 1.659-1.545.522-1.013.522-2.409 0-1.398-.522-2.444-.524-1.045-1.671-1.613-1.147-.58-3.034-.58h-4.954V234zm10.955-10.455L650.906 234h-3.272l-5.637-10.455zm24.787-12.818h2.818v15.409q0 2.387-1.125 4.262-1.114 1.863-3.148 2.943-2.034 1.068-4.772 1.068t-4.773-1.068q-2.034-1.08-3.159-2.943-1.114-1.875-1.114-4.262v-15.409h2.818v15.182q0 1.704.75 3.034.75 1.318 2.137 2.08 1.397.75 3.341.75 1.943 0 3.341-.75 1.397-.762 2.136-2.08.75-1.33.75-3.034zM19.99 210.727h3.364l7.909 19.318h.272l7.91-19.318h3.363V234h-2.636v-17.682h-.227L32.672 234h-2.546l-7.272-17.682h-.228V234H19.99zM48.46 234v-23.273h7.863q2.728 0 4.478.932 1.75.92 2.59 2.534.841 1.614.841 3.671t-.84 3.647q-.84 1.591-2.58 2.5-1.739.898-4.443.898h-6.364v-2.545h6.273q1.863 0 3-.546 1.147-.545 1.66-1.545.522-1.013.522-2.409 0-1.398-.523-2.444-.522-1.045-1.67-1.613-1.148-.58-3.035-.58h-4.954V234zm10.954-10.455L65.141 234h-3.273l-5.637-10.455zM84.2 210.727h2.819v15.409q0 2.387-1.126 4.262-1.113 1.863-3.147 2.943-2.034 1.068-4.773 1.068t-4.773-1.068q-2.034-1.08-3.159-2.943-1.113-1.875-1.113-4.262v-15.409h2.818v15.182q0 1.704.75 3.034.75 1.318 2.136 2.08 1.398.75 3.341.75 1.945 0 3.34-.75 1.4-.762 2.137-2.08.75-1.33.75-3.034z"/><path fill="#fff" d="M76.876 138.773v2.5H66.695v-2.5zm14.72 0v2.5H81.412v-2.5zm14.718 0v2.5H96.132v-2.5zM207.876 138.773v2.5h-10.181v-2.5zm14.719 0v2.5h-10.182v-2.5zm14.719 0v2.5h-10.182v-2.5zM338.876 138.773v2.5h-10.181v-2.5zm14.719 0v2.5h-10.182v-2.5zm14.719 0v2.5h-10.182v-2.5zM469.876 138.773v2.5h-10.181v-2.5zm14.719 0v2.5h-10.182v-2.5zm14.719 0v2.5h-10.182v-2.5zM600.876 138.773v2.5h-10.181v-2.5zm14.719 0v2.5h-10.182v-2.5zm14.719 0v2.5h-10.182v-2.5z"/><path stroke="#dbdbdb" stroke-width="2" d="M151 89v97M282 89v97M413 89v97M544 89v97"/></svg>
